modules/feathericon/icons/instagram.svg

<?xml version="1.0" encoding="UTF-8"?>
<svg width="14px" height="14px" viewBox="0 0 14 14" version="1.1" xmlns="http://www.w3.org/2000/svg" xmlns:xlink="http://www.w3.org/1999/xlink">
    <!-- Generator: sketchtool 48.1 (47250) - http://www.bohemiancoding.com/sketch -->
    <title>instagram</title>
    <desc>Created with sketchtool.</desc>
    <defs></defs>
    <g id="brand" stroke="none" stroke-width="1" fill="none" fill-rule="evenodd">
        <g id="instagram" fill="#000000">
            <path d="M6.99999997,0 C5.098928,0 4.86051946,0.00805809769 4.11392281,0.0421244004 C3.36882664,0.0761073434 2.85999945,0.194450233 2.41472009,0.367504828 C1.95443599,0.54636681 1.56403505,0.785720098 1.17488451,1.17487064 C0.78573396,1.56404898 0.546380672,1.95442213 0.367490903,2.41473401 C0.194436308,2.85998559 0.0761212048,3.36884057 0.0421104752,4.11390895 C0.00804417254,4.86053338 1.38613862e-05,5.09888636 1.38613862e-05,6.99998611 C1.38613862e-05,8.90108586 0.00804417254,9.13946662 0.0421104752,9.88609105 C0.0761212048,10.6311594 0.194436308,11.1400144 0.367490903,11.585266 C0.546380672,12.0455501 0.78573396,12.435951 1.17488451,12.8251294 C1.56403505,13.2142799 1.95443599,13.4536054 2.41472009,13.632523 C2.85999945,13.8055498 3.36882664,13.9238927 4.11392281,13.9579034 C4.86051946,13.9919419 5.098928,14 6.99999997,14 C8.90109972,14 9.13945269,13.9919419 9.88607712,13.9579034 C10.6311733,13.9238927 11.1400005,13.8055498 11.5852798,13.632523 C12.0455917,13.4536054 12.4359649,13.2142799 12.8251154,12.8251294 C13.2142938,12.435951 13.4536193,12.0455779 13.632509,11.585266 C13.8055636,11.1400144 13.9239065,10.6311594 13.9578617,9.88609105 C13.9919558,9.13946662 14.0000139,8.90108586 14.0000139,6.99998611 C14.0000139,5.09891414 13.9919558,4.86053338 13.9578617,4.11390895 C13.9239065,3.36884057 13.8055636,2.85998559 13.632509,2.41473401 C13.4536193,1.95442213 13.2142938,1.56404898 12.8251154,1.17487064 C12.4359649,0.785720098 12.0455917,0.54636681 11.5852798,0.367504828 C11.1400005,0.194450233 10.6311733,0.0761073434 9.88607712,0.0421244004 C9.13945269,0.00805809769 8.90109972,0 6.99999997,0 M6.99999997,1.26125901 C8.86908962,1.26125901 9.09046502,1.26837236 9.82858676,1.30204965 C10.5110799,1.33319837 10.8817246,1.44723435 11.1283857,1.54309792 C11.4551277,1.67008243 11.6883401,1.82176917 11.9332785,2.06670755 C12.1782169,2.31167372 12.3299036,2.5448584 12.4569159,2.87160037 C12.5527517,3.11826152 12.6667877,3.48893401 12.6979364,4.17139931 C12.7315859,4.90952106 12.7387271,5.13092424 12.7387271,6.99998611 C12.7387271,8.86907576 12.7315859,9.09047894 12.6979364,9.8285729 C12.6667877,10.5110938 12.5527517,10.8817385 12.4569159,11.1283996 C12.3299036,11.4551138 12.1782169,11.6883263 11.9332785,11.9332647 C11.6883401,12.1782308 11.4551277,12.3299176 11.1283857,12.4569021 C10.8817246,12.5527379 10.5110799,12.6668016 9.82858676,12.6979226 C9.09057616,12.7315998 8.86922855,12.738741 6.99999997,12.738741 C5.13077138,12.738741 4.90942377,12.7315998 4.17141317,12.6979226 C3.48892008,12.6668016 3.11824759,12.5527379 2.87158644,12.4569021 C2.54487226,12.3299176 2.3116598,12.1782308 2.0667492,11.9332647 C1.82178303,11.6883263 1.6700685,11.4551138 1.543084,11.1283996 C1.44724821,10.8817385 1.33321223,10.5110938 1.30206352,9.82860069 C1.26838622,9.09047894 1.26127287,8.86907576 1.26127287,6.99998611 C1.26127287,5.13092424 1.26838622,4.90952106 1.30206352,4.17139931 C1.33321223,3.48893401 1.44724821,3.11826152 1.543084,2.87160037 C1.6700685,2.5448584 1.82178303,2.31167372 2.06672141,2.06673534 C2.3116598,1.82176917 2.54487226,1.67008243 2.87158644,1.54309792 C3.11824759,1.44723435 3.48892008,1.33319837 4.17138539,1.30204965 C4.90953492,1.26837236 5.13091031,1.26125901 6.99999997,1.26125901 M6.99999997,9.33333333 C5.71134343,9.33333333 4.66665274,8.28864265 4.66665274,6.99998611 C4.66665274,5.71132957 5.71134343,4.66666667 6.99999997,4.66666667 C8.28865651,4.66666667 9.33334719,5.71132957 9.33334719,6.99998611 C9.33334719,8.28864265 8.28865651,9.33333333 6.99999997,9.33333333 M6.99999997,3.40540766 C5.01476256,3.40540766 3.40539373,5.0147487 3.40539373,6.99998611 C3.40539373,8.9852513 5.01476256,10.5945923 6.99999997,10.5945923 C8.98523737,10.5945923 10.5945784,8.9852513 10.5945784,6.99998611 C10.5945784,5.0147487 8.98523737,3.40540766 6.99999997,3.40540766 M11.5766132,3.26338508 C11.5766132,3.72730921 11.2005501,4.10337229 10.736626,4.10337229 C10.2727019,4.10337229 9.896611,3.72730921 9.896611,3.26338508 C9.896611,2.79946094 10.2727019,2.42337007 10.736626,2.42337007 C11.2005501,2.42337007 11.5766132,2.79946094 11.5766132,3.26338508" id="Shape"></path>
        </g>
    </g>
</svg>

<svg width="14" height="14" viewBox="0 0 14 14" xmlns="http://www.w3.org/2000/svg"><path d="M7 0C5.099 0 4.86.008 4.114.042c-.745.034-1.254.152-1.7.326-.46.178-.85.418-1.24.807-.388.389-.628.78-.807 1.24-.173.445-.29.954-.325 1.699C.008 4.86 0 5.099 0 7c0 1.901.008 2.14.042 2.886.034.745.152 1.254.325 1.7.18.46.419.85.808 1.24.389.388.78.628 1.24.807.445.173.954.29 1.699.325.747.034.985.042 2.886.042 1.901 0 2.14-.008 2.886-.042.745-.034 1.254-.152 1.7-.325.46-.18.85-.419 1.24-.808.388-.389.628-.78.807-1.24.173-.445.29-.954.325-1.699C13.992 9.14 14 8.901 14 7c0-1.901-.008-2.14-.042-2.886-.034-.745-.152-1.254-.325-1.7a3.431 3.431 0 0 0-.808-1.24 3.43 3.43 0 0 0-1.24-.806C11.14.194 10.631.076 9.886.042 9.14.008 8.901 0 7 0m0 1.261c1.87 0 2.09.007 2.829.041.682.031 1.053.145 1.3.241.326.127.56.279.804.524.245.245.397.478.524.805.096.246.21.617.24 1.3.035.738.042.959.042 2.828 0 1.87-.007 2.09-.041 2.829-.031.682-.145 1.053-.241 1.3a2.17 2.17 0 0 1-.524.804 2.169 2.169 0 0 1-.805.524c-.246.096-.617.21-1.3.24-.737.035-.959.042-2.828.042-1.87 0-2.09-.007-2.829-.041-.682-.031-1.053-.145-1.3-.241a2.168 2.168 0 0 1-.804-.524 2.169 2.169 0 0 1-.524-.805c-.096-.246-.21-.617-.24-1.3C1.267 9.09 1.26 8.87 1.26 7c0-1.87.007-2.09.041-2.829.031-.682.145-1.053.241-1.3.127-.326.279-.56.524-.804.245-.245.478-.397.805-.524.246-.096.617-.21 1.3-.241.738-.034.959-.04 2.828-.04m0 8.071a2.333 2.333 0 1 1 0-4.666 2.333 2.333 0 0 1 0 4.666m0-5.928a3.595 3.595 0 1 0 0 7.19 3.595 3.595 0 0 0 0-7.19m4.577-.142a.84.84 0 1 1-1.68 0 .84.84 0 0 1 1.68 0" fill="#000" fill-rule="evenodd"/></svg>
